Yaru++/actions/16/distribute-vertical-bottom.svg

<svg viewBox="0 0 24 24" xmlns="http://www.w3.org/2000/svg">
  <path d="m6 4v6h-2v1h3 8 2v-1h-2v-6zm1 1h7v5h-7zm11 6-2 3h4zm-10 2v6h-4v1h5 6 2v-1h-2v-6zm1 1h5v5h-5zm7 2 2 3 2-3z" fill="#808080"/>
</svg>

<svg xmlns="http://www.w3.org/2000/svg" viewBox="0 0 24 24">
 <defs>
  <style id="current-color-scheme" type="text/css">
   .ColorScheme-Text { color:#808080; }
  </style>
 </defs>
 <path style="fill:currentColor" class="ColorScheme-Text" d="M 6 4 L 6 10 L 4 10 L 4 11 L 7 11 L 15 11 L 17 11 L 17 10 L 15 10 L 15 4 L 6 4 z M 7 5 L 14 5 L 14 10 L 7 10 L 7 5 z M 18 11 L 16 14 L 20 14 L 18 11 z M 8 13 L 8 19 L 4 19 L 4 20 L 9 20 L 15 20 L 17 20 L 17 19 L 15 19 L 15 13 L 8 13 z M 9 14 L 14 14 L 14 19 L 9 19 L 9 14 z M 16 16 L 18 19 L 20 16 L 16 16 z"/>
</svg>
